dist/img/mail.svg

<svg width="40" height="40" viewBox="0 0 40 40" fill="none" xmlns="http://www.w3.org/2000/svg">
<path d="M20 0C8.95469 0 0 8.95469 0 20C0 31.0453 8.95469 40 20 40C31.0453 40 40 31.0453 40 20C40 8.95469 31.0453 0 20 0ZM30.5469 26.1781C30.5454 26.7079 30.3343 27.2156 29.9597 27.5902C29.5851 27.9648 29.0774 28.1759 28.5477 28.1773H11.4523C10.9226 28.1759 10.4149 27.9648 10.0403 27.5902C9.66566 27.2156 9.45457 26.7079 9.45312 26.1781V15.7281L19.9953 20.9875L30.5469 15.8383V26.1781ZM30.5469 13.8672L20.0047 19.0125L9.45312 13.75C9.47328 13.2332 9.69239 12.7442 10.0647 12.3851C10.4369 12.0261 10.9336 11.8249 11.4508 11.8234H28.5477C29.0773 11.8249 29.5849 12.0359 29.9594 12.4103C30.334 12.7848 30.5452 13.2922 30.5469 13.8219V13.8672Z" fill="#7700FF"/>
</svg>

<svg width="40" height="40" fill="none" xmlns="http://www.w3.org/2000/svg"><path d="M20 0C8.955 0 0 8.955 0 20s8.955 20 20 20 20-8.955 20-20S31.045 0 20 0Zm10.547 26.178a2.005 2.005 0 0 1-2 2H11.453a2.004 2.004 0 0 1-1.999-2v-10.45l10.542 5.26 10.552-5.15v10.34Zm0-12.31-10.542 5.144L9.453 13.75a2.005 2.005 0 0 1 1.998-1.927h17.097a2.005 2.005 0 0 1 1.999 1.999v.045Z" fill="#70F"/></svg>
